micro_commons_design_system/assets/images/billy.svg

<svg width="85" height="47" viewBox="0 0 85 47" fill="none" xmlns="http://www.w3.org/2000/svg">
<path d="M8.706 33.436C8.43 33.252 8.13867 33.16 7.832 33.16C7.49467 33.16 7.20333 33.2827 6.958 33.528L6.636 33.85C6.39067 34.0953 6.11467 34.356 5.808 34.632C5.532 34.8773 5.22533 35 4.888 35H1.668C0.901333 35 0.518 34.6167 0.518 33.85V3.72C0.518 3.10667 0.824667 2.8 1.438 2.8H6.866C7.47933 2.8 7.786 3.10667 7.786 3.72V11.448C7.786 12.0307 7.602 12.5367 7.234 12.966L5.808 14.576C5.624 14.7907 5.56267 14.9747 5.624 15.128C5.68533 15.2813 5.82333 15.3887 6.038 15.45C6.19133 15.4807 6.34467 15.4653 6.498 15.404C6.65133 15.3427 6.80467 15.2353 6.958 15.082C8.03133 13.9473 9.31933 13.0733 10.822 12.46C12.3247 11.816 14.0267 11.494 15.928 11.494C18.78 11.494 21.1413 12.092 23.012 13.288C24.9133 14.4533 26.3393 15.9253 27.29 17.704C28.2407 19.4827 28.7007 21.4147 28.67 23.5C28.67 25.5853 28.1947 27.5173 27.244 29.296C26.324 31.0747 24.9133 32.562 23.012 33.758C21.1107 34.9233 18.7493 35.506 15.928 35.506C13.1067 35.506 10.6993 34.816 8.706 33.436ZM14.502 30.216C16.0047 30.216 17.2467 29.894 18.228 29.25C19.24 28.5753 19.9913 27.7473 20.482 26.766C21.0033 25.754 21.264 24.6653 21.264 23.5C21.264 22.3347 21.0033 21.2613 20.482 20.28C19.9913 19.268 19.24 18.44 18.228 17.796C17.2467 17.1213 16.0047 16.784 14.502 16.784C12.478 16.784 10.8527 17.3973 9.626 18.624C8.39933 19.8507 7.786 21.476 7.786 23.5C7.786 25.524 8.39933 27.1493 9.626 28.376C10.8527 29.6027 12.478 30.216 14.502 30.216ZM30.8403 4.916C30.8403 3.59733 31.2389 2.53933 32.0363 1.742C32.8336 0.913997 33.9223 0.499997 35.3023 0.499997C36.6209 0.499997 37.6789 0.913997 38.4763 1.742C39.3043 2.53933 39.7183 3.59733 39.7183 4.916C39.7183 6.296 39.3043 7.38467 38.4763 8.182C37.6789 8.97933 36.6209 9.378 35.3023 9.378C33.9223 9.378 32.8336 8.97933 32.0363 8.182C31.2389 7.38467 30.8403 6.296 30.8403 4.916ZM38.7523 34.08C38.7523 34.6933 38.4456 35 37.8323 35H32.4043C31.7909 35 31.4843 34.6933 31.4843 34.08V12.92C31.4843 12.3067 31.7909 12 32.4043 12H37.8323C38.4456 12 38.7523 12.3067 38.7523 12.92V34.08ZM50.0126 34.08C50.0126 34.6933 49.7059 35 49.0926 35H43.6646C43.0512 35 42.7446 34.6933 42.7446 34.08V3.72C42.7446 3.10667 43.0512 2.8 43.6646 2.8H49.0926C49.7059 2.8 50.0126 3.10667 50.0126 3.72V34.08ZM60.2997 34.08C60.2997 34.6933 59.993 35 59.3797 35H53.9517C53.3383 35 53.0317 34.6933 53.0317 34.08V3.72C53.0317 3.10667 53.3383 2.8 53.9517 2.8H59.3797C59.993 2.8 60.2997 3.10667 60.2997 3.72V34.08ZM77.6248 34.632C77.6248 34.3867 77.7168 34.1873 77.9008 34.034L79.6028 32.424C79.8174 32.24 79.8788 32.0713 79.7868 31.918C79.7254 31.734 79.5874 31.6113 79.3728 31.55C79.0354 31.4887 78.7288 31.6113 78.4528 31.918C77.2874 33.1753 75.9534 34.0953 74.4508 34.678C72.9788 35.23 71.6601 35.506 70.4948 35.506C68.1641 35.506 66.3088 34.8313 64.9288 33.482C63.5488 32.102 62.8588 29.894 62.8588 26.858V13.15C62.8588 12.8127 62.9814 12.5367 63.2268 12.322C63.4721 12.1073 63.7634 12 64.1008 12H68.9768C69.7434 12 70.1268 12.3833 70.1268 13.15V24.742C70.1268 28.3913 71.1081 30.216 73.0708 30.216C73.8988 30.216 74.5888 30.0167 75.1408 29.618C75.7234 29.2193 76.1988 28.698 76.5668 28.054C76.9348 27.41 77.1954 26.6893 77.3488 25.892C77.5328 25.0947 77.6248 24.2973 77.6248 23.5V13.15C77.6248 12.8127 77.7474 12.5367 77.9928 12.322C78.2381 12.1073 78.5294 12 78.8668 12H83.7428C84.5094 12 84.8928 12.3833 84.8928 13.15V34.172C84.8928 35.9813 84.6628 37.6527 84.2028 39.186C83.7734 40.75 83.0988 42.0993 82.1788 43.234C81.2894 44.3993 80.1394 45.304 78.7288 45.948C77.3488 46.592 75.6928 46.914 73.7608 46.914C71.9821 46.914 70.2954 46.6533 68.7008 46.132C67.1061 45.6413 65.6801 44.9513 64.4228 44.062C63.8401 43.6633 63.8094 43.2033 64.3308 42.682L67.4128 39.646C67.5968 39.462 67.7961 39.37 68.0108 39.37C68.2868 39.37 68.5474 39.4927 68.7928 39.738C69.9581 40.9953 71.6141 41.624 73.7608 41.624C75.2021 41.624 76.1988 41.118 76.7508 40.106C77.3334 39.1247 77.6248 37.622 77.6248 35.598V34.632Z" fill="url(#paint0_linear_17_722)"/>
<defs>
<linearGradient id="paint0_linear_17_722" x1="-1" y1="24" x2="105.333" y2="24" gradientUnits="userSpaceOnUse">
<stop stop-color="#50FA7B"/>
<stop offset="1" stop-color="#8BE9FD"/>
</linearGradient>
</defs>
</svg>

<svg width="85" height="47" fill="none" xmlns="http://www.w3.org/2000/svg"><path d="M8.706 33.436a1.55 1.55 0 0 0-.874-.276c-.337 0-.629.123-.874.368l-.322.322c-.245.245-.521.506-.828.782a1.352 1.352 0 0 1-.92.368h-3.22c-.767 0-1.15-.383-1.15-1.15V3.72c0-.613.307-.92.92-.92h5.428c.613 0 .92.307.92.92v7.728c0 .583-.184 1.089-.552 1.518l-1.426 1.61c-.184.215-.245.399-.184.552.061.153.2.26.414.322.153.03.307.015.46-.046.153-.061.307-.169.46-.322a10.933 10.933 0 0 1 3.864-2.622c1.503-.644 3.205-.966 5.106-.966 2.852 0 5.213.598 7.084 1.794 1.901 1.165 3.327 2.637 4.278 4.416.95 1.779 1.41 3.71 1.38 5.796 0 2.085-.475 4.017-1.426 5.796-.92 1.779-2.33 3.266-4.232 4.462-1.901 1.165-4.263 1.748-7.084 1.748-2.821 0-5.229-.69-7.222-2.07Zm5.796-3.22c1.503 0 2.745-.322 3.726-.966 1.012-.675 1.763-1.503 2.254-2.484a7.03 7.03 0 0 0 .782-3.266c0-1.165-.26-2.239-.782-3.22-.49-1.012-1.242-1.84-2.254-2.484-.981-.675-2.223-1.012-3.726-1.012-2.024 0-3.65.613-4.876 1.84-1.227 1.227-1.84 2.852-1.84 4.876 0 2.024.613 3.65 1.84 4.876 1.227 1.227 2.852 1.84 4.876 1.84Zm16.338-25.3c0-1.319.399-2.377 1.196-3.174C32.834.914 33.922.5 35.302.5c1.319 0 2.377.414 3.174 1.242.828.797 1.242 1.855 1.242 3.174 0 1.38-.414 2.469-1.242 3.266-.797.797-1.855 1.196-3.174 1.196-1.38 0-2.468-.399-3.266-1.196-.797-.797-1.196-1.886-1.196-3.266Zm7.912 29.164c0 .613-.306.92-.92.92h-5.428c-.613 0-.92-.307-.92-.92V12.92c0-.613.307-.92.92-.92h5.428c.614 0 .92.307.92.92v21.16Zm11.26 0c0 .613-.306.92-.92.92h-5.427c-.614 0-.92-.307-.92-.92V3.72c0-.613.306-.92.92-.92h5.428c.613 0 .92.307.92.92v30.36Zm10.288 0c0 .613-.307.92-.92.92h-5.428c-.614 0-.92-.307-.92-.92V3.72c0-.613.306-.92.92-.92h5.428c.613 0 .92.307.92.92v30.36Zm17.325.552c0-.245.092-.445.276-.598l1.702-1.61c.214-.184.276-.353.184-.506-.062-.184-.2-.307-.414-.368-.338-.061-.644.061-.92.368-1.166 1.257-2.5 2.177-4.002 2.76-1.472.552-2.79.828-3.956.828-2.33 0-4.186-.675-5.566-2.024-1.38-1.38-2.07-3.588-2.07-6.624V13.15c0-.337.122-.613.368-.828.245-.215.536-.322.874-.322h4.876c.766 0 1.15.383 1.15 1.15v11.592c0 3.65.981 5.474 2.944 5.474.828 0 1.518-.2 2.07-.598a4.67 4.67 0 0 0 1.426-1.564 6.982 6.982 0 0 0 .782-2.162c.184-.797.276-1.595.276-2.392V13.15c0-.337.122-.613.368-.828.245-.215.536-.322.874-.322h4.876c.766 0 1.15.383 1.15 1.15v21.022c0 1.81-.23 3.48-.69 5.014-.43 1.564-1.104 2.913-2.024 4.048-.89 1.165-2.04 2.07-3.45 2.714-1.38.644-3.036.966-4.968.966-1.779 0-3.466-.26-5.06-.782-1.595-.49-3.02-1.18-4.278-2.07-.583-.399-.614-.859-.092-1.38l3.082-3.036c.184-.184.383-.276.598-.276.276 0 .536.123.782.368 1.165 1.257 2.821 1.886 4.968 1.886 1.441 0 2.438-.506 2.99-1.518.582-.981.874-2.484.874-4.508v-.966Z" fill="url(#a)"/><defs><linearGradient id="a" x1="-1" y1="24" x2="105.333" y2="24" gradientUnits="userSpaceOnUse"><stop stop-color="#50FA7B"/><stop offset="1" stop-color="#8BE9FD"/></linearGradient></defs></svg>
